tools/download-figma-icons/icons/solid/toy.svg

<svg width="24" height="24" viewBox="0 0 24 24" fill="none" xmlns="http://www.w3.org/2000/svg">
<path fill-rule="evenodd" clip-rule="evenodd" d="M11.9999 19.5C10.4999 19.5 7.94236 18.7913 8.24986 18L9.89311 14.25C10.0731 13.7895 10.3866 13.5 10.8749 13.5H13.1249C13.6131 13.5 13.8831 13.7895 14.0624 14.25L15.7499 18C16.0574 18.7913 13.7114 19.5 11.9999 19.5ZM22.0034 17.838C21.3689 17.2087 20.6256 17.0228 19.6859 17.2658C19.2284 16.0478 17.6031 12.165 17.0346 10.6357C16.9656 10.4475 16.4999 9.32475 16.4999 7.5L19.6956 8.99325C19.8299 9.02625 19.9716 8.99025 20.0699 8.89275L21.6366 7.30275C21.7649 7.176 21.7881 6.9795 21.6944 6.8265L19.4999 2.625V0.3825C19.4976 0.171 19.3379 0 19.1249 0C17.2409 0 15.2901 0.53925 14.2656 1.602C12.4911 3.44325 11.9324 6.43425 11.9999 8.25H9.77311H9.24586C8.77711 8.25 8.64661 8.04675 8.33386 7.70325C8.25136 7.6125 8.16211 7.51575 8.05936 7.41225L7.99486 7.34625C7.61761 6.966 7.10236 6.75 6.08986 6.75C4.35211 6.75 3.78736 8.45775 3.74986 9.75V12.3038C3.74986 12.519 3.90886 12.75 4.12486 12.75C4.45936 12.75 4.53436 12.4837 4.63186 12.2895C5.13586 11.2665 5.92936 11.283 6.53986 11.1383L4.37161 17.2965C3.41086 17.0385 2.65486 17.2237 1.99861 17.8755C1.15036 18.7283 1.53211 20.1203 2.05486 20.7915C2.72536 21.666 3.88561 22.3298 3.92761 22.3545C5.73511 23.4225 9.66736 24 12.4499 24C15.6081 24 19.9139 22.9897 21.9036 20.7728C21.9096 20.766 21.9156 20.76 21.9216 20.7525C22.3484 20.2035 22.9341 18.774 22.0034 17.838Z" fill="black"/>
</svg>

<svg xmlns="http://www.w3.org/2000/svg" width="24" height="24" fill="none" viewBox="0 0 24 24"><path fill="currentColor" fill-rule="evenodd" d="M12 19.5c-1.5 0-4.058-.709-3.75-1.5l1.643-3.75c.18-.46.494-.75.982-.75h2.25c.488 0 .758.29.937.75L15.75 18c.307.791-2.039 1.5-3.75 1.5m10.003-1.662c-.634-.63-1.377-.815-2.317-.572-.458-1.218-2.083-5.101-2.651-6.63-.07-.188-.535-1.311-.535-3.136l3.196 1.493a.4.4 0 0 0 .374-.1l1.567-1.59a.385.385 0 0 0 .057-.476L19.5 2.625V.383A.376.376 0 0 0 19.125 0c-1.884 0-3.835.54-4.86 1.602C12.492 3.443 11.933 6.434 12 8.25H9.246c-.469 0-.6-.203-.912-.547a9 9 0 0 0-.275-.29l-.064-.067c-.377-.38-.893-.596-1.905-.596-1.738 0-2.303 1.708-2.34 3v2.554c0 .215.159.446.375.446.334 0 .41-.266.507-.46.504-1.023 1.297-1.007 1.908-1.152l-2.168 6.159c-.961-.259-1.717-.073-2.373.578-.849.853-.467 2.245.056 2.916.67.875 1.83 1.539 1.873 1.564C5.735 23.422 9.668 24 12.45 24c3.158 0 7.464-1.01 9.454-3.227l.018-.02c.426-.55 1.012-1.979.081-2.915" clip-rule="evenodd"/></svg>
